X: 020198
T: Beans in the Pot 
N: 113
C: BB
R: polka
M: 2/4
Q: 275 
L: 1/8
K: C 
"C"cG G>B|"Am"c>d ed|"C"cG cG|"G"ED D2|"C"cG G>B|"F"c>d ef|\
"C"g>e "F"cA | "Am"AG "G"G2 |
"C"cG G>B|"Am"c>d ed|"C"cG cG|"G"ED DB|"F"cF GF|"C"Ec "F"AF|\
"C"E>F GE | "G"DB, "C"C2 ||
"Am"e>c ea|"G"g>d gb|"Am"ab ag|"G"ed g2|"Dm"a>f df|"Am"g>e cA|\
"Em"Bc de |"Am"cB A2 :|
